Sweet-Rainbow/icons/cantata.svg

<?xml version="1.0" encoding="UTF-8" standalone="no"?>
<!-- Generator: Gravit.io -->

<svg
   xmlns:dc="http://purl.org/dc/elements/1.1/"
   xmlns:cc="http://creativecommons.org/ns#"
   xmlns:rdf="http://www.w3.org/1999/02/22-rdf-syntax-ns#"
   xmlns:svg="http://www.w3.org/2000/svg"
   xmlns="http://www.w3.org/2000/svg"
   xmlns:sodipodi="http://sodipodi.sourceforge.net/DTD/sodipodi-0.dtd"
   xmlns:inkscape="http://www.inkscape.org/namespaces/inkscape"
   style="isolation:isolate"
   viewBox="0 0 36 36"
   width="48"
   height="48"
   version="1.1"
   id="svg9"
   sodipodi:docname="cantata.svg"
   inkscape:version="0.92.4 (5da689c313, 2019-01-14)">
  <metadata
     id="metadata15">
    <rdf:RDF>
      <cc:Work
         rdf:about="">
        <dc:format>image/svg+xml</dc:format>
        <dc:type
           rdf:resource="http://purl.org/dc/dcmitype/StillImage" />
        <dc:title></dc:title>
      </cc:Work>
    </rdf:RDF>
  </metadata>
  <defs
     id="defs13" />
  <sodipodi:namedview
     pagecolor="#ffffff"
     bordercolor="#666666"
     borderopacity="1"
     objecttolerance="10"
     gridtolerance="10"
     guidetolerance="10"
     inkscape:pageopacity="0"
     inkscape:pageshadow="2"
     inkscape:window-width="640"
     inkscape:window-height="480"
     id="namedview11"
     showgrid="false"
     inkscape:zoom="29.365243"
     inkscape:cx="25.325443"
     inkscape:cy="32"
     inkscape:current-layer="svg9"
     units="px" />
  <linearGradient
     id="_lgradient_11"
     x1="0"
     y1="0.5"
     x2="0.90748805"
     y2="0.92007786"
     gradientTransform="scale(48)"
     gradientUnits="userSpaceOnUse">
    <stop
       offset="0%"
       stop-opacity="1"
       style="stop-color:rgb(0,196,255)"
       id="stop2" />
    <stop
       offset="83.88839793817618%"
       stop-opacity="1"
       style="stop-color:rgb(0,114,255)"
       id="stop4" />
  </linearGradient>
  <g
     id="g826"
     transform="scale(0.75)">
    <path
       id="path7"
       d="m 17.78,4.99 v 0 C 16.731,5.332 15.602,4.759 15.26,3.71 v 0 C 14.918,2.661 15.491,1.532 16.54,1.19 v 0 C 18.94,0.4 21.45,0 23.97,0 32.32,0 40.1,4.34 44.46,11.46 46.77,15.22 48,19.56 48,23.97 48,32.32 43.66,40.1 36.54,44.46 32.78,46.77 28.45,48 24.03,48 15.68,48 7.9,43.66 3.54,36.54 1.23,32.78 0,28.45 0,24.03 0,18.39 1.98,12.92 5.59,8.59 v 0 C 6.302,7.746 7.568,7.634 8.415,8.34 v 0 c 0.847,0.706 0.957,1.97 0.245,2.82 v 0 C 5.65,14.77 4,19.32 4,24.03 4,27.7 5.02,31.31 6.95,34.45 10.59,40.38 17.07,44 24.03,44 27.71,44 31.31,42.98 34.45,41.05 40.38,37.41 44,30.93 44,23.97 44,20.3 42.98,16.69 41.05,13.55 37.41,7.62 30.93,4 23.97,4 21.87,4 19.78,4.33 17.78,4.99 Z m 5.339,6.583 v 13.998 c -1.173,-0.415 -2.352,-0.633 -3.66,-0.635 -4.717,0 -8.541,2.731 -8.541,6.101 0,3.369 3.824,6.1 8.541,6.1 4.717,0 8.54,-2.731 8.54,-6.1 V 16.395 c 0,0 6.308,4.145 3.432,6.783 -0.79,0.453 -1.049,1.153 -0.911,1.763 0.211,0.926 1.338,1.645 2.903,0.979 2.352,-1.226 3.117,-3.424 3.117,-5.254 0,-5.491 -7.321,-10.371 -12.201,-10.371 -1.22,0 -1.22,1.278 -1.22,1.278 z"
       inkscape:connector-curvature="0"
       style="fill:url(#_lgradient_11);fill-rule:evenodd" />
  </g>
</svg>

<?xml version="1.0" encoding="UTF-8" standalone="no"?><!-- Generator: Gravit.io --><svg xmlns="http://www.w3.org/2000/svg" xmlns:xlink="http://www.w3.org/1999/xlink" style="isolation:isolate" viewBox="0 0 48 48" width="48pt" height="48pt"><linearGradient id="_lgradient_11" x1="0" y1="0.5" x2="0.9074880558539661" y2="0.9200778838291643" gradientTransform="matrix(48,0,0,48,0,0)" gradientUnits="userSpaceOnUse"><stop offset="0%" stop-opacity="1" style="stop-color:rgb(0,196,255)"/><stop offset="83.88839793817618%" stop-opacity="1" style="stop-color:rgb(0,114,255)"/></linearGradient><path d=" M 17.78 4.99 L 17.78 4.99 C 16.731 5.332 15.602 4.759 15.26 3.71 L 15.26 3.71 C 14.918 2.661 15.491 1.532 16.54 1.19 L 16.54 1.19 C 18.94 0.4 21.45 0 23.97 0 C 32.32 0 40.1 4.34 44.46 11.46 C 46.77 15.22 48 19.56 48 23.97 C 48 32.32 43.66 40.1 36.54 44.46 C 32.78 46.77 28.45 48 24.03 48 C 15.68 48 7.9 43.66 3.54 36.54 C 1.23 32.78 0 28.45 0 24.03 C 0 18.39 1.98 12.92 5.59 8.59 L 5.59 8.59 C 6.302 7.746 7.568 7.634 8.415 8.34 L 8.415 8.34 C 9.262 9.046 9.372 10.31 8.66 11.16 L 8.66 11.16 C 5.65 14.77 4 19.32 4 24.03 C 4 27.7 5.02 31.31 6.95 34.45 C 10.59 40.38 17.07 44 24.03 44 C 27.71 44 31.31 42.98 34.45 41.05 C 40.38 37.41 44 30.93 44 23.97 C 44 20.3 42.98 16.69 41.05 13.55 C 37.41 7.62 30.93 4 23.97 4 C 21.87 4 19.78 4.33 17.78 4.99 Z  M 23.119 11.573 L 23.119 25.571 C 21.946 25.156 20.767 24.938 19.459 24.936 C 14.742 24.936 10.918 27.667 10.918 31.037 C 10.918 34.406 14.742 37.137 19.459 37.137 C 24.176 37.137 27.999 34.406 27.999 31.037 L 27.999 16.395 C 27.999 16.395 34.307 20.54 31.431 23.178 C 30.641 23.631 30.382 24.331 30.52 24.941 C 30.731 25.867 31.858 26.586 33.423 25.92 C 35.775 24.694 36.54 22.496 36.54 20.666 C 36.54 15.175 29.219 10.295 24.339 10.295 C 23.119 10.295 23.119 11.573 23.119 11.573 Z " fill-rule="evenodd" fill="url(#_lgradient_11)"/></svg>
